icons/contacts-fill.svg

<svg xmlns="http://www.w3.org/2000/svg" width="24" height="24" fill="none"><g clip-path="url(#a)"><g><path fill="#121212" d="M2 22C2 19.8783 2.84285 17.8434 4.34315 16.3431C5.84344 14.8429 7.87827 14 10 14C12.1217 14 14.1566 14.8429 15.6569 16.3431C17.1571 17.8434 18 19.8783 18 22H2ZM10 13C6.685 13 4 10.315 4 7C4 3.685 6.685 1 10 1C13.315 1 16 3.685 16 7C16 10.315 13.315 13 10 13ZM20 17H24V19H20V17ZM17 12H24V14H17V12ZM19 7H24V9H19V7Z"/></g></g><defs><clipPath id="a"><rect width="24" height="24" fill="white"/></clipPath></defs></svg>

<svg width="24" height="24" fill="none" xmlns="http://www.w3.org/2000/svg"><g clip-path="url(#a)"><path d="M2 22a8 8 0 0 1 16 0H2Zm8-9c-3.315 0-6-2.685-6-6s2.685-6 6-6 6 2.685 6 6-2.685 6-6 6Zm10 4h4v2h-4v-2Zm-3-5h7v2h-7v-2Zm2-5h5v2h-5V7Z" /></g><defs><clipPath id="a"><path fill="#fff" d="M0 0h24v24H0z"/></clipPath></defs></svg>
